public/images/icons/32x32/profil_purple.svg

<svg height="32" viewBox="0 0 32 32" width="32" xmlns="http://www.w3.org/2000/svg"><g fill="none" fill-rule="evenodd" stroke="#1e1169" stroke-width="1.5" transform="translate(6 6)"><path d="m19.9115044 10c0-5.4739823-4.4375221-9.91150442-9.9115044-9.91150442s-9.91150442 4.43752212-9.91150442 9.91150442 4.43752212 9.9115044 9.91150442 9.9115044 9.9115044-4.4375221 9.9115044-9.9115044z"/><path d="m14.8672566 8.31858407c0-2.63929203-2.139469-4.77876106-4.778761-4.77876106-2.63929206 0-4.77876109 2.13946903-4.77876109 4.77876106s2.13946903 4.77876103 4.77876109 4.77876103c2.639292 0 4.778761-2.139469 4.778761-4.77876103zm2.7666903 8.00297343c-1.2837168-1.8339823-3.219115-3.1784071-5.4700885-3.6973451m-4.43899114.0714513c-2.17433629.5761062-4.03292036 1.9281416-5.26141593 3.7417699"/></g></svg>

<svg xmlns="http://www.w3.org/2000/svg" width="32" height="32" viewBox="0 0 32 32">
  <g fill="none" fill-rule="evenodd" stroke="#1E1169" stroke-width="1.5" transform="translate(6 6)">
    <path d="M19.9115044,10 C19.9115044,4.5260177 15.4739823,0.0884955752 10,0.0884955752 C4.5260177,0.0884955752 0.0884955752,4.5260177 0.0884955752,10 C0.0884955752,15.4739823 4.5260177,19.9115044 10,19.9115044 C15.4739823,19.9115044 19.9115044,15.4739823 19.9115044,10 Z"/>
    <path d="M14.8672566 8.31858407C14.8672566 5.67929204 12.7277876 3.53982301 10.0884956 3.53982301 7.44920354 3.53982301 5.30973451 5.67929204 5.30973451 8.31858407 5.30973451 10.9578761 7.44920354 13.0973451 10.0884956 13.0973451 12.7277876 13.0973451 14.8672566 10.9578761 14.8672566 8.31858407zM17.6339469 16.3215575C16.3502301 14.4875752 14.4148319 13.1431504 12.1638584 12.6242124M7.72486726 12.6956637C5.55053097 13.2717699 3.6919469 14.6238053 2.46345133 16.4374336"/>
  </g>
</svg>
